X:7572
T:Inisheer
M:3/4
L:1/8
K:G Major
D2|B3 ABd|B3 ABd|E3 BAB|D3 EGA|B3 ABd|B3 ABd|G3 BAF|G4:|!
Bd|e3 fed|B3 ABd|efe dBd|e4 fgf|e3 fed|B3 ABA|G3 BAF|G4 Bd|!
e3 fed|B3 ABd|gfe dBd|e3 fgf|e3 fed|B3 ABA|G3 BAF|G4:|!
